X:13618
T:Prince of Wales March. TLY.033
M:4/4
L:1/8
Q:150
S:Wm.Tildesley,Swinton,Lancs.1860s.
R:March
O:England.
A:Lancashire.
N:Last quaver bar 2 marked p, last crotchet bar 4 marked
H:1860.
Z:vmp.Taz Tarry.
K:C
G2|c3G c>Gc>e|g3e g2 z"P" e|d2d2e2g2|(gfef) e2"F"G2|!
c3G c>Gc>e|g3e g2 g-c'|a2 a>a (ac'bc') (d'c'ba)|{a}g2 e-g {g}f2 df|!
{f}e2 c-e {e}d2 (B/2c/2d/2e/2)|d2g2g2 z2|
"P"d2(B/c/d/e/) (d/c/B/d/) (e/^f/g/a/)|.b.b.b.b (b/a/g/^f/) (g/f/e/d/)|!
(c/B/c/d/)c2(c/A/B/c/) (d/e/^f/g/)|.a.a.a.a (a/g/^f/e/) (d/c/B/c/)|
(Bg)g3(gbg)|!^d-ee3(^fge)|dg (^f/e/d/c/)B2~A2|G2g>gg2:|!
|:"P"(B>c)|d3cB2"F".g.^f|.e.d.c.B .A.B.c.d|"P"c3BA2"F".a.g.|.^f.e.d.e .d
.c.B.c|!
.B.c.d.e .^f.g.a.b|ec'/-b/ (d'/c'/b/a/)g2^f2|g2g2g2(g>f|e2(g>f)e2g2|!
g2e2f2(f>e)|d2(f>e)d2f2|g-f.e.d e2"F"(c'b)|.a(c'/b/) (d'/c'/b/a/) ge/-g/
 (g/f/e/d/)|!
c>ce>e g>gc'>c'|a>a (~a^g/a/)|f>f (fe/f/)|dd (c/B/A/G/) cegc'|!
g(e/f/) ge cc/c/ cc|ee/e/ ee "Contd.."gg/g/ gg|c'2c'>c'c'2:|]
